16x16/apps/AdobeAfterEffect.svg

<svg height="16" width="16" xmlns="http://www.w3.org/2000/svg"><rect fill="#502e8e" height="16" rx=".8" width="16"/><path d="m5 4-2 7h1.5l.5-2h1l.5 2h1.5l-2-7zm.5 2 .5 2h-1zm5.5 0c-1.105 0-2 1.12-2 2.5s.895 2.5 2 2.5c.192 0 1.816-.107 2-.175v-1.165c-.167.173-1.797.338-2 .339-.423 0-.8-.401-.941-1h2.898c.028-.164.042-.332.043-.5 0-1.38-.895-2.5-2-2.5zm0 1c.423 0 .8.401.941 1h-1.881c.14-.599.518-1 .941-1z" fill="#cdb5d7"/></svg>

<svg width="16" height="16" xmlns="http://www.w3.org/2000/svg"><rect width="16" height="16" rx=".8" ry=".8" style="fill:#502e8e"/><path d="m5 4-2 7h1.5L5 9h1l.5 2H8L6 4zm.5 2L6 8H5zM11 6C9.895 6 9 7.12 9 8.5s.895 2.5 2 2.5c.192 0 1.816-.107 2-.175V9.66c-.167.173-1.797.338-2 .339-.423 0-.8-.401-.941-1h2.898c.028-.164.042-.332.043-.5 0-1.38-.895-2.5-2-2.5zm0 1c.423 0 .8.401.941 1H10.06c.14-.599.518-1 .941-1z" style="fill:#cdb5d7"/></svg>
